!!!!SEGMENT: pl-sa--9-a-i-9--002_haydn-joseph--cassatio-in-g-menuet.krn
!!!cenid: 17xx:561
!!!COM: Haydn, Joseph
!!!COM-rismid: pe55803
!!!CDT: 1732/03/31-1809/05/31
!!!CNT: Austrian
!!!OPR: Cassatio in G
!!!OTL: Menuet
!!!OMV: 002
!!!PDT:
!!!AGN: Secular; Cassation
!!!SMS-siglum: PL-SA
!!!SMS-shelfmark: 9/A I 9
!!!SMS-shelfwork: 001-002 M
!!!SMS-variant:
!!!SMS-altvar:
!!!NIFC-rismid: 1001076831
!!!URL-scan: http://bc.bdsandomierz.pl/dlibra/publication/1275/edition/1243/content
!!!ONB-nifc: UWAGA: części Cassatio: Presto, Menuet, Adagio, Menuet, Presto
!!!AIN: 1 empty 1 viola 2 violn
!!!key:
**kern	**kern	**dynam	**kern	**kern	**dynam
*part4	*part3	*part3	*part2	*part1	*part1
*staff4	*staff3	*	*staff2	*staff1	*
*Iempty	*Iviola	*	*Ivioln	*Ivioln	*
*I"Baſso.	*I"Viola di alto	*	*I"Violino 2do.	*I"Violino ♯ Primo	*
*I'b	*I'vla	*	*I'vl 2	*I'vl 1	*
*clefF4	*clefC3	*	*clefG2	*clefG2	*
*Trd0c0	*	*	*	*	*
*k[f#]	*k[f#]	*	*k[f#]	*k[f#]	*
*G:	*G:	*	*G:	*G:	*
*M3/4	*M3/4	*	*M3/4	*M3/4	*
=1	=1	=1	=1	=1	=1
*	*	*	*2\right	*2\right	*
*	*	*	*Xtuplet	*Xtuplet	*
!LO:TX:a:t=P:problem=dwa znaki przypominające segno za metrum	!LO:TX:a:t=P:problem=dwa znaki przypominające segno za metrum	!	!	!	!
!LO:TX:a:i:t=Menuet	!LO:TX:a:i:t=Menueto	!	!LO:TX:a:i:t=Menuet	!LO:TX:a:i:t=Volti Menuetto.	!
4GG/	4G/	.	2b\	2gg\	.
4BB/	4B/	.	.	.	.
!	!	!	!LO:TUP:a:problem=klamra łukowa, kropka zamiast numeru	!LO:TUP:a:problem=klamra łukowa	!
4D/	4d\	.	12cc\L	12aa\L	.
.	.	.	12b\	12gg\	.
.	.	.	12a\J	12ff#\J	.
=2	=2	=2	=2	=2	=2
4G\	4g\	.	2.b\	4gg\	.
4r	4r	.	.	4dd\	.
4r	4r	.	.	4dd#X\	.
=3	=3	=3	=3	=3	=3
4G\	4g\	.	2cc\	2ee\	.
4G\	4g\	.	.	.	.
!	!	!	!LO:TUP:a:problem=klamra łukowa, kropka zamiast numeru	!LO:TUP:a:problem=klamra łukowa	!
4G\	4g\	.	12ee\L	12gg\L	.
.	.	.	12dd\	12ff#\	.
.	.	.	12cc\J	12ee\J	.
=4	=4	=4	=4	=4	=4
!LO:TX:a:t=P:problem=mixed beam	!LO:TX:a:t=P:problem=mixed beam	!	!	!	!
8G\L	8g\L	.	4b\	4dd\	.
8GG/	8G/	.	.	.	.
8BB/	8B/	.	4r	4r	.
8D/J	8d/J	.	.	.	.
4G\	4g\	.	4r	4r	.
=5	=5	=5	=5	=5	=5
!	!	!LO:HP:a:i:t=p.	!	!	!
!	!	!LO:DY:a	!LO:TUP:a:problem=klamra łukowa, kropka zamiast numeru	!	!
4r	4r	p	12a\L	12cc\L	.
.	.	.	12b\	12dd\	.
.	.	.	12a\J	12cc\J	.
4d\	4dd\	.	4cc\	4aa\	.
4D\	4d\	.	4r	4r	.
=6	=6	=6	=6	=6	=6
!	!	!	!LO:TUP:b:problem=klamra łukowa, kropka zamiast numeru	!LO:TUP:a:problem=klamra łukowa	!
4r	4r	.	12a/L	12b\L	.
.	.	.	12b/	12cc\	.
.	.	.	12a/J	12b\J	.
4G\	4g\	.	4b/	4gg\	.
4GG/	4G/	.	4r	4r	.
=7	=7	=7	=7	=7	=7
.	.	.	.	8qqb/	.
4C/	4c\	.	4c/	4a/	.
4D\	4d\	.	4B/	4g/	.
4D\	4d\	.	4A/	4f#/	.
=8	=8	=8	=8	=8	=8
4G\	4g\	.	2G/	4g/	.
4D\	4d\	.	.	4r	.
4GG/	4G/	.	4r	4r	.
!LO:TX:a:t=P:problem=łuk nad kreską taktową	!LO:TX:a:t=P:problem=łuk nad kreską taktową	!	!	!	!
=9:|!|:	=9:|!|:	=9:|!|:	=9:|!|:;>	=9:|!|:;>	=9:|!|:
4G\	4g\	.	2.d/	2aa\	.
4G\	4g\	.	.	.	.
!	!	!	!	!LO:TUP:a:problem=klamra łukowa	!
4G\	4g\	.	.	12ddd\L	.
.	.	.	.	12ccc#X\	.
.	.	.	.	12bb\J	.
=10	=10	=10	=10	=10	=10
4F#\	4f#\	.	2d/	4aa\	.
4F#\	4f#\	.	.	4fff#\	.
4F#\	4f#\	.	4A/	4aa\	.
!	!	!	!	!LO:LB:g=original	!
=11	=11	=11	=11	=11	=11
*2\right	*2\right	*	*	*	*
2E\	2e\	.	4B/	4aa\	.
.	.	.	4c#X/	4gg\	.
4D\	4d\	.	4d/	8gg\L	.
.	.	.	.	8ff#\J	.
=12	=12	=12	=12	=12	=12
.	.	.	8qqd/	8qqff#/	.
4A\	4a\	.	2c#X/	2ee\	.
4E\	4e\	.	.	.	.
4AA/	4A/	.	4r	4r	.
!	!	!	!LO:LB:g=original	!	!
=13	=13	=13	=13	=13	=13
!	!	!	!LO:TUP:a:problem=klamra łukowa, kropka zamiast numeru	!	!
2F#\	4r	.	12a\L	[>2.aa\	.
.	.	.	12b\	.	.
.	.	.	12a\J	.	.
.	4r	.	4dd\	.	.
*	*Xtuplet	*	*	*	*
!	!LO:TUP:a:problem=klamra łukowa	!	!	!	!
4D\	12a\L	.	4r	.	.
.	12g\	.	.	.	.
.	12f#\J	.	.	.	.
!LO:LB:g=original	!	!	!	!	!
=14	=14	=14	=14	=14	=14
!	!	!	!LO:TUP:a:problem=klamra łukowa, kropka zamiast numeru	!	!
4A\	4e\	.	12cc#X\L	2.aa\_>	.
.	.	.	12dd\	.	.
.	.	.	12ee\J	.	.
4c#X\	4r	.	4g/	.	.
!	!LO:TUP:a:problem=klamra łukowa	!	!	!	!
4A\	12g\L	.	4r	.	.
.	12f#\	.	.	.	.
.	12e\J	.	.	.	.
!	!LO:LB:g=original	!	!	!	!
=15	=15	=15	=15	=15	=15
!	!	!	!LO:TUP:b:problem=klamra łukowa, kropka zamiast numeru	!	!
4d\	4d\	.	12f#/L	2.aa\_>	.
.	.	.	12g/	.	.
.	.	.	12f#/J	.	.
4F#\	4r	.	4dd\	.	.
!	!LO:TUP:a:problem=klamra łukowa	!	!	!	!
4D\	12a\L	.	4r	.	.
.	12g\	.	.	.	.
.	12f#\J	.	.	.	.
=16	=16	=16	=16	=16	=16
!	!	!	!LO:TUP:a:problem=klamra łukowa, kropka zamiast numeru	!	!
4A\	4e\	.	12cc#X\L	2.aa\_>	.
.	.	.	12dd\	.	.
.	.	.	12ee\J	.	.
!LO:TX:a:t=P:problem=trudno stwierdzić, czy krzyżyk dopisany jest tą samą ręką	!	!	!	!	!
4c#X\	4r	.	4f#/	.	.
!	!LO:TUP:a:problem=klamra łukowa	!	!	!	!
4A\	12g\L	.	4r	.	.
.	12f#\	.	.	.	.
.	12e\J	.	.	.	.
=17	=17	=17	=17	=17	=17
!	!	!	!LO:TUP:b:problem=klamra łukowa, kropka zamiast numeru	!	!
4d\	4d\	.	12f#/L	4aa\]	.
.	.	.	12g/	.	.
.	.	.	12a/J	.	.
4A\	4a\	.	4d/	4f#/	.
4AA/	4A/	.	4c#X/	4e/	.
=18	=18	=18	=18	=18	=18
.	.	.	.	8qqe/	.
4D\	4d\	.	2d/	2d/	.
4d\	4dd\	.	.	.	.
4cn\	4ccn\	.	4r	4r	.
=19	=19	=19	=19	=19	=19
4B\	4b\	.	2gg\	2gg\	.
4G\	4g\	.	.	.	.
!	!	!	!LO:TUP:a:problem=klamra łukowa, kropka zamiast numeru	!LO:TUP:a:problem=klamra łukowa	!
4B\	4b\	.	12aa\L	12aa\L	.
.	.	.	12gg\	12gg\	.
.	.	.	[>12ffn\J	12ffn\J	.
=20	=20	=20	=20	=20	=20
4c\	4cc\	.	4ff\]	4ffn\	.
4C/	4c\	.	8ee\L	8ee\L	.
.	.	.	8dd\	8dd\	.
4r	4r	.	8cc\	8cc\	.
.	.	.	8b\J	8b\J	.
=21	=21	=21	=21	=21	=21
4c\	4cc\	.	8a\L	8a\L	.
.	.	.	8cc\	8b\	.
8A\L	8a\L	.	8cc\	8cc\	.
8B\	8b\	.	8dd\	8dd\	.
8c\	8cc\	.	8dd#X\	8dd#X\	.
8c#X\J	8cc#X\J	.	8ee\J	8ee\J	.
=22	=22	=22	=22	=22	=22
.	.	.	8qqe/	8qqg/	.
4d\	4dd\	.	2d/	2f#/	.
4A\	4a\	.	.	.	.
4D\	4d\	.	4r	4r	.
!LO:TX:a:t=P:problem=falista linia	!LO:TX:a:t=P:problem=falista linia	!	!	!	!
!	!	!	!LO:PB:g=original	!LO:LB:g=original	!
=23	=23	=23	=23	=23	=23
!LO:TX:i:a:t=Da capo	!LO:TX:i:a:t=Da capo	!	!	!	!
!LO:TX:a:t=P:problem=napis "Da capo" na pięciolinii. Da capo rozpisane.	!LO:TX:a:t=P:problem=napis "Da capo" na pięciolinii. Da capo rozpisane.	!	!	!	!
4GG/	4G/	.	2b\	2gg\	.
4BB/	4B/	.	.	.	.
!	!	!	!LO:TUP:a:problem=klamra łukowa, kropka zamiast numeru	!LO:TUP:a:problem=klamra łukowa	!
4D/	4d\	.	12cc\L	12aa\L	.
.	.	.	12b\	12gg\	.
.	.	.	12a\J	12ff#\J	.
=24	=24	=24	=24	=24	=24
4G\	4g\	.	2.b\	4gg\	.
4r	4r	.	.	4dd\	.
4r	4r	.	.	4dd#X\	.
=25	=25	=25	=25	=25	=25
4G\	4g\	.	2cc\	2ee\	.
4G\	4g\	.	.	.	.
!	!	!	!LO:TUP:a:problem=klamra łukowa	!LO:TUP:a:problem=klamra łukowa	!
4G\	4g\	.	12ee\L	12gg\L	.
.	.	.	12dd\	12ff#\	.
.	.	.	12cc\J	12ee\J	.
=26	=26	=26	=26	=26	=26
!LO:TX:a:t=P:problem=mixed beam	!LO:TX:a:t=P:problem=mixed beam	!	!	!	!
8G\L	8g\L	.	4b\	4dd\	.
8GG/	8G/	.	.	.	.
8BB/	8B/	.	4r	4r	.
8D/J	8d/J	.	.	.	.
4G\	4g\	.	4r	4r	.
=27	=27	=27	=27	=27	=27
!	!	!LO:HP:a:i:t=p.	!	!	!
!	!	!LO:DY:a	!LO:TUP:b:problem=klamra łukowa, kropka zamiast numeru	!LO:TUP:a:problem=klamra łukowa	!
4r	4r	p	12a/L	12cc\L	.
.	.	.	12b/	12dd\	.
.	.	.	12a/J	12cc\J	.
4d\	4dd\	.	4cc\	4aa\	.
4D\	4d\	.	4r	4r	.
=28	=28	=28	=28	=28	=28
!	!	!	!LO:TUP:b:problem=klamra łukowa, kropka zamiast numeru	!	!
4r	4r	.	12a/L	12b\L	.
.	.	.	12b/	12cc\	.
.	.	.	12a/J	12b\J	.
4G\	4g\	.	4b\	4dd\	.
4GG/	4G/	.	4r	4r	.
=29	=29	=29	=29	=29	=29
.	.	.	.	8qqb/	.
4C/	4c\	.	4c/	4a/	.
4D\	4d\	.	4B/	4g/	.
4D\	4d\	.	4A/	4f#/	.
=30	=30	=30	=30	=30	=30
4G\	4g\	.	2G/	2g/	.
4D\	4d\	.	.	.	.
4GG/	4G/	.	4r	4r	.
!	!	!	!	!LO:LB:g=original	!
=31!|:	=31|!|:	=31:|!|:	=31:|!|:;>	=31:|!|:;>	=31:|!|:
*M3/4	*clefC3	*	*clefG2	*clefG2	*
*k[b-]	*k[f#]	*	*k[b-]	*k[b-]	*
!	!LO:TX:a:t=P:problem= inna tonacja, niezgodne piony harmoniczne	!	!	!	!
!LO:TX:i:a:t=Trio	!LO:TX:i:a:t=Trio	!	!LO:TX:a:i:t=Trio	!LO:TX:i:a:t=Trio	!
!	!	!	!LO:TX:a:t=P:problem=napis "Trio" na pięciolinii przed kluczem	!LO:TX:a:t=P:problem=napis "Trio" na pięciolinii przed kluczem	!
!LO:TX:a:t=P:problem=znak początku repetycji	!LO:TX:a:t=P:problem=znak początku repetycji	!	!	!	!
!	!	!	!	!LO:N:vis=1	!
8G\L	8g\L	.	8g/L|	2.r	.
8F#X\	8f#X\	.	8f#X/|	.	.
8G\	8g\	.	8g/|	.	.
8A\	8a\	.	8a/|	.	.
8B-\	8b\	.	8b-/|	.	.
8c\J	8cc\J	.	8cc/J|	.	.
=32	=32	=32	=32	=32	=32
!	!	!	!	!	!LO:DY:a
!	!	!	!	!	!LO:HP:a:i:t=for
4d\	4dd\	.	4dd\|	4r	f
4r	4r	.	4r	4d/ 4cc/ 4aa/	.
4r	4r	.	4r	4d/ 4b- 4ff#X	.
!LO:TX:a:t=P:problem=znak końca repetycji	!LO:TX:a:t=P:problem=znak końca repetycji	!	!	!	!
!	!	!	!LO:LB:g=original	!	!
=33	=33	=33	=33	=33	=33
!LO:TX:a:t=P::problem=takty 33-34&colon; rozpisana repetycja	!LO:TX:a:t=P::problem=takty 33-34&colon; rozpisana repetycja	!	!	!	!
8G\L	8g\L	.	8g/L|	4d/ 4b- 4gg	.
8F#X\	8f#X\	.	8f#X/|	.	.
8G\	8g\	.	8g/|	4r	.
8A\	8a\	.	8a/|	.	.
8B-\	8b\	.	8b-/|	4r	.
8c\J	8cc\J	.	8cc/J|	.	.
=34	=34	=34	=34	=34	=34
4d\	4dd\	.	4dd\	4r	.
4r	4r	.	4r	4d/ 4cc/ 4aa/	.
4r	4r	.	4r	4d/ 4a 4ff#X	.
!LO:LB:g=original	!	!	!	!	!
=35	=35	=35	=35	=35	=35
8G\L	8g\L	.	8g\L|	4d/ 4b- 4gg	.
!	!	!	!LO:SIC:s=8f#	!	!
8F#X\	8f#X\	.	8f\|	.	.
8G\	8g\	.	8g\|	4r	.
8A\	8a\	.	8a\|	.	.
8B-\	8b\	.	8b-\|	4r	.
8c\J	8cc\J	.	8cc\J|	.	.
!	!LO:LB:g=original	!	!	!	!
=36	=36	=36	=36	=36	=36
!	!	!	!	!LO:N:vis=1	!
4d\	4dd\	.	4dd\	2.r	.
4D\	4d\	.	4d/	.	.
4r	4r	.	4r	.	.
=37	=37	=37	=37	=37	=37
!	!	!	!	!	!LO:DY:a:rj
!	!	!	!	!	!LO:HP:a:i:t=p:
8BB-/L	2.r	.	2.r	2.bb-\	p
8AA/	.	.	.	.	.
8BB-/	.	.	.	.	.
8C/	.	.	.	.	.
8D/	.	.	.	.	.
8E/J	.	.	.	.	.
=38	=38	=38	=38	=38	=38
4F\	(>8f#\L	.	(>8a\L	2aa\	.
.	8a\	.	8cc\	.	.
4r	8cc\)	.	8ee-X\)	.	.
.	8a'>\	.	8cc'>\	.	.
4r	8f#'>\	.	8a'>\	8ccc\L	.
.	8a'>\J	.	8cc'>\J	8ee-X\J	.
=39	=39	=39	=39	=39	=39
8BB-/L	4b\	.	4b-\	4dd\	.
8AA/	.	.	.	.	.
8BB-/	4r	.	4r	2gg\	.
8C/	.	.	.	.	.
8D/	4r	.	4r	.	.
8E/J	.	.	.	.	.
=40	=40	=40	=40	=40	=40
4F\	(>8f#\L	.	(>8a\L	2aa\	.
.	8a\	.	8cc\	.	.
4r	8cc\)	.	8ee-X\)	.	.
.	8a'>\	.	8cc'>\	.	.
4r	8f#'>\	.	8a'>\	8ccc\L	.
.	8a'>\J	.	8cc'>\J	8ee-X\J	.
=41	=41	=41	=41	=41	=41
!	!	!	!	!LO:TX:a:t=P:problem=mixed beam	!
4B-\	4b\	.	4b-\	8dd\L	.
.	.	.	.	8d/	.
4E\	4e-X\	.	4e-X/	8e-X/	.
.	.	.	.	8cc/	.
4F\	4f#\	.	4f/	8f/	.
.	.	.	.	8a/J	.
!	!	!	!	!LO:LB:g=original	!
=42	=42	=42	=42	=42	=42
4BB-;>/	4B;>/	.	4B-/	4B-/	.
8D/L	8d'>\L	.	4r	4r	.
8C/	8c'>\	.	.	.	.
8BB-/	8B'>\	.	4r	4r	.
8AA/J	8A'>\J	.	.	.	.
=43:|!|:;>	=43:|!|:;>	=43:|!|:	=43:|!|:;>	=43:|!|:;>	=43:|!|:
8BB-/L	8B/L	.	2.dd\	[>2.bb-\	.
8AA/	8A/	.	.	.	.
8BB-/	8B/	.	.	.	.
8C/	8c/	.	.	.	.
8D/	8d/	.	.	.	.
8E/J	8e-X/J	.	.	.	.
=44	=44	=44	=44	=44	=44
8F\L	8f#\L	.	2.cc\	4bb-\]	.
8En\	8en\	.	.	.	.
8F\	8f#\	.	.	[>2aa\	.
8G\	8g\	.	.	.	.
8A\	8a\	.	.	.	.
8F#X\J	8f#X\J	.	.	.	.
=45	=45	=45	=45	=45	=45
8G\L	8g'>\L	.	2.b-\	4aa\]	.
8F\	8f#X'>\	.	.	.	.
8G\	8g'>\	.	.	[>2gg\	.
8A\	8a'>\	.	.	.	.
8B-X\	8b'>\	.	.	.	.
8c\J	8cc'>\J	.	.	.	.
=46	=46	=46	=46	=46	=46
4d\	4dd\	.	4b-\	4gg\]	.
4r	4d\	.	4a\	4ff#X\	.
4r	4r	.	4r	4r	.
!LO:LB:g=original	!	!	!LO:LB:g=original	!	!
=47	=47	=47	=47	=47	=47
!	!LO:TX:a:t=P:problem=znak początku repetycji	!	!	!	!
8G\L	8g\L	.	8g/L	2.r	.
8F#X\	8f#X\	.	8f#X/	.	.
8G\	8g\	.	8g/	.	.
8A\	8a\	.	8a/	.	.
8B-X\	8b\	.	8b-/	.	.
8c\J	8cc\J	.	8cc/J	.	.
=48	=48	=48	=48	=48	=48
4d\	4dd\	.	4dd\	4r	.
4D\	4r	.	4r	4d/ 4cc 4aa	.
4r	4r	.	4r	4d/ 4a 4ff#X	.
!	!LO:TX:a:t=P:problem=znak początku repetycji	!	!	!	!
=49	=49	=49	=49	=49	=49
!	!LO:TX:a:t=P::problem=takty 49-50&colon; rozpisana repetycja	!	!	!	!
8G\L	8g\L	.	8g/L	4d/ 4b- 4gg	.
!	!	!	!LO:SIC:s=8f#	!	!
8F#X\	8f#X\	.	8f/	.	.
8G\	8g\	.	8g/	4r	.
8A\	8a\	.	8a/	.	.
8B-\	8b\	.	8b-/	4r	.
8c\J	8cc\J	.	8cc/J	.	.
=50	=50	=50	=50	=50	=50
4d\	4dd\	.	4dd\	4r	.
4r	4r	.	4r	4d/ 4cc 4aa	.
4r	4r	.	4r	4d/ 4a 4ff#X	.
!	!LO:LB:g=original	!	!	!	!
=51	=51	=51	=51	=51	=51
8G\L	8g\L	.	8g'>\L	4d/ 4b- 4gg	.
8F#X\	8f#\	.	8f#X'>\	.	.
8G\	8g\	.	8g'>\	4r	.
8A\	8a\	.	8a'>\	.	.
8B-\	8b\	.	8b-'>\	4r	.
8c\J	8cc\J	.	8cc'>\J	.	.
=52	=52	=52	=52	=52	=52
4d\	4dd\	.	4dd\	2.r	.
4r	4d\	.	4d/	.	.
4r	4r	.	4r	.	.
=53	=53	=53	=53	=53	=53
8G\L	2.ryy	.	2.ryy	2.ryy	.
8F#X\	.	.	.	.	.
8G\	.	.	.	.	.
8A\	.	.	.	.	.
8B-\	.	.	.	.	.
8c\J	.	.	.	.	.
=54	=54	=54	=54	=54	=54
4d\	2.ryy	.	2.ryy	2.ryy	.
4D\	.	.	.	.	.
4r	.	.	.	.	.
=55	=55	=55	=55	=55	=55
!	!LO:TX:a:t=P:problem=znak początku repetycji	!	!	!	!
2.c\	4cc\	.	4ee-X\	2.ff#X\	.
.	8b\L	.	8dd\L	.	.
.	8a\	.	(>8cc\	.	.
.	8b\	.	8b-\	.	.
.	8cc\J	.	8a\J)	.	.
=56	=56	=56	=56	=56	=56
4B-\	8b\L|	.	8g\L	8gg\L	.
.	8b\	.	8dd\	8dd\J	.
4r	(>8a\	.	(>8cc\	2dd\	.
.	8g\	.	8b-\	.	.
4r	8f#X\	.	8a\	.	.
.	8g\J)	.	8b-\J)	.	.
!	!LO:TX:a:t=P:problem=znak końca repetycji	!	!	!	!
=57	=57	=57	=57	=57	=57
!	!LO:TX:a:t=P::problem=takty 57-58&colon; rozpisana repetycja	!	!	!	!
2.c\	4cc\	.	4ee-X\	2.ff#X\	.
.	8b\L	.	(>8dd\L	.	.
.	8a\	.	8cc\	.	.
.	8b\	.	8b-\	.	.
.	8cc\J	.	8a\J)	.	.
!	!	!	!	!LO:LB:g=original	!
=58	=58	=58	=58	=58	=58
4B-\	8b\L|	.	8g\L	8gg'>\L	.
.	8b\	.	8dd\	8dd\J	.
4r	(>8a\	.	8cc\	2dd\	.
.	8g\	.	8b-\	.	.
4r	8f#X\	.	8a\	.	.
.	8g\J)	.	8b-\J	.	.
=59	=59	=59	=59	=59	=59
4c\	4cc\	.	4g/	8ee-X\L	.
.	.	.	.	(>8cc\	.
4d\	4dd\	.	4g/	8b-\	.
.	.	.	.	8a\J)	.
4D/	4d\	.	4f#X/	8f/L	.
.	.	.	.	8a#X/J	.
=60	=60	=60	=60	=60	=60
!	!	!	!LO:TX:b:i:t=Da Capo Menuet	!	!
4G\	4g\	.	2.g/	4G/	.
4D\	4G/	.	.	4r	.
!	!LO:TX:b:i:t=Verte Cito	!	!	!LO:TX:b:i:t=Menuet Da Capo	!
!	!LO:TX:a:t=P:problem=napis "Verte Cito" za kreską na pięciolinii	!	!	!LO:TX:b:t=P:problem=napis "Menuet Da Capo" za kreską na pięciolinii	!
4GG/	4r	.	.	4r	.
=:|!;>	=:|!;>	=:|!	=:|!;>	=:|!;>	=:|!
*-	*-	*-	*-	*-	*-
!!!system-decoration: s1,s2,s3,s4
!!!RDF**kern: > = above
!!!RDF**kern: < = below
!!!EED: Mateusz Mrugas
!!!EST: 2020-12-05
!!!ENC: Tomasz Grochalski
!!!END: 2020-06-02
!!!RDF**kern: | = vertical stroke
